X:768
T:John Stephen of Chance Inn
C:Angus Fitchet
S:Sessions etc
Z:Nigel Gatherer
M:4/4
L:1/8
K:F
C | F2 F>G A>B c<A | f>ed>c A>B c<A | d>cB>d c>AF>A | 
G<Gg>f (3edc (3BAG | F2 F>G A>B c<A | f>ed>c A>B c<A | 
d>cB>d c>AF>f | (3edc (3BAG F2 F || g | a>gf>a g>ec>e | 
f>ed>f e<a A2 | d>cB>d c>AF>A | G<Gg>f e>de<c |
a>gf>a g>ec>e | f>ed>f e<a A2 | d>cB>d c>AF>f | (3edc (3BAG F2 F |]
<end>
<start>
